icons/Color/scalable/gimp-color-space-non-linear.svg

<svg height="16" viewBox="0 0 4.2333333 4.2333335" width="16" xmlns="http://www.w3.org/2000/svg"><g transform="translate(0 -292.76665)"><path d="m.264583 293.03122h3.704167v3.704181h-3.704167z" fill="#fff" fill-rule="evenodd"/><path d="m.26458334 294.08957h1.58750006v2.64583h-.2645834v-2.38125h-1.32291666z" fill="#bebebe" fill-rule="evenodd"/><g fill="#2d2d2d"><path d="m.26458334 296.7354c.33769803-1.99099 2.01315326-3.44589 3.70416676-3.70417" fill="none" stroke="#dc0000" stroke-width=".264583"/><path d="m0 0v16h16v-16zm.99999999.99999999 14.00000001.00000001v14h-14.00000001z" fill="#2d2d2d" fill-rule="evenodd" transform="matrix(.26458334 0 0 .26458334 0 292.76665)"/></g></g></svg>

<?xml version="1.0" encoding="UTF-8" standalone="no"?>
<!-- Created with Inkscape (http://www.inkscape.org/) -->

<svg
   xmlns:dc="http://purl.org/dc/elements/1.1/"
   xmlns:cc="http://creativecommons.org/ns#"
   xmlns:rdf="http://www.w3.org/1999/02/22-rdf-syntax-ns#"
   xmlns:svg="http://www.w3.org/2000/svg"
   xmlns="http://www.w3.org/2000/svg"
   xmlns:sodipodi="http://sodipodi.sourceforge.net/DTD/sodipodi-0.dtd"
   xmlns:inkscape="http://www.inkscape.org/namespaces/inkscape"
   width="16"
   height="16"
   viewBox="0 0 4.2333333 4.2333335"
   version="1.1"
   id="svg8"
   inkscape:version="0.92.2 (5c3e80d, 2017-08-06)"
   sodipodi:docname="gimp-color-space-perceptual.svg"
   inkscape:export-filename="/home/alex/soft/graphics/gimp/gimp-2018-01-05/icons/Color/16/gimp-color-space-perceptual.png"
   inkscape:export-xdpi="96"
   inkscape:export-ydpi="96">
  <defs
     id="defs2" />
  <sodipodi:namedview
     id="base"
     pagecolor="#ffffff"
     bordercolor="#666666"
     borderopacity="1.0"
     inkscape:pageopacity="0.0"
     inkscape:pageshadow="2"
     inkscape:zoom="32"
     inkscape:cx="7.8856033"
     inkscape:cy="10.412292"
     inkscape:document-units="px"
     inkscape:current-layer="layer1"
     inkscape:document-rotation="0"
     showgrid="false"
     units="px"
     inkscape:window-width="1920"
     inkscape:window-height="1136"
     inkscape:window-x="0"
     inkscape:window-y="27"
     inkscape:window-maximized="1"
     inkscape:snap-bbox="true"
     inkscape:bbox-paths="true"
     inkscape:bbox-nodes="true"
     inkscape:object-paths="true"
     inkscape:snap-intersection-paths="true"
     inkscape:snap-smooth-nodes="true"
     inkscape:snap-midpoints="true"
     inkscape:snap-object-midpoints="true"
     inkscape:snap-center="true"
     inkscape:snap-text-baseline="true"
     inkscape:snap-page="true"
     inkscape:snap-global="true">
    <inkscape:grid
       type="xygrid"
       id="grid812" />
  </sodipodi:namedview>
  <metadata
     id="metadata5">
    <rdf:RDF>
      <cc:Work
         rdf:about="">
        <dc:format>image/svg+xml</dc:format>
        <dc:type
           rdf:resource="http://purl.org/dc/dcmitype/StillImage" />
        <dc:title />
      </cc:Work>
    </rdf:RDF>
  </metadata>
  <g
     inkscape:label="Layer 1"
     inkscape:groupmode="layer"
     id="layer1"
     transform="translate(0,-292.76665)">
    <rect
       style="color:#000000;overflow:visible;opacity:1;fill:#ffffff;fill-opacity:1;fill-rule:evenodd;stroke:none;stroke-width:0.26458335;stroke-linecap:round;stroke-linejoin:miter;stroke-opacity:1;paint-order:normal"
       id="rect2483"
       width="3.7041667"
       height="3.7041807"
       x="0.26458335"
       y="293.03122" />
    <path
       style="fill:#bebebe;fill-rule:evenodd;stroke:none;stroke-width:0.26458335px;stroke-linecap:butt;stroke-linejoin:miter;stroke-opacity:1;fill-opacity:1"
       d="M 0.26458334,294.08957 H 1.8520834 v 2.64583 H 1.5875 v -2.38125 H 0.26458334 Z"
       id="path1375"
       inkscape:connector-curvature="0" />
    <g
       id="gimp-color-space-perceptual"
       style="fill:#2d2d2d">
      <path
         sodipodi:nodetypes="cc"
         inkscape:connector-curvature="0"
         id="path819"
         d="m 0.26458334,296.7354 c 0.33769803,-1.99099 2.01315326,-3.44589 3.70416676,-3.70417"
         style="fill:none;fill-rule:evenodd;stroke:#dc0000;stroke-width:0.26458335px;stroke-linecap:butt;stroke-linejoin:miter;stroke-opacity:1" />
      <path
         id="rect814"
         transform="matrix(0.26458334,0,0,0.26458334,0,292.76665)"
         d="m 0,0 v 16 l 16,0 V 0 Z M 0.99999999,0.99999999 15,1 V 15 L 0.99999999,15 Z"
         style="color:#000000;overflow:visible;opacity:1;fill:#2d2d2d;fill-opacity:1;fill-rule:evenodd;stroke:none;stroke-width:1;stroke-linecap:round;stroke-linejoin:miter;stroke-opacity:1;paint-order:normal"
         inkscape:connector-curvature="0"
         sodipodi:nodetypes="cccccccccc" />
    </g>
  </g>
</svg>
